X:1
T:James Gibb editions
T:Magi videntes stellam - Clemens non Papa
T:#
%%score [ 1 2 3 4 ]
L:1/8
Q:1/4=90
M:4/4
K:F
V:1 treble nm="Soprano" snm="S"
V:2 treble nm="Alto" snm="A"
V:3 treble-8 nm="Tenor" snm="T"
V:4 bass nm="Bass" snm="B"
V:1
"^Magi videntes stellam""^Jacobus Clemens non Papa\n(c.1515-56)" z8 | z4 d4 | d2 A2 d2 e2 | %3
w: |Ma-|gi vi- den- tes|
 (f3 e d2 c2 | B4) A2 (f2- | fe e4 d2- |[M:4/4] d2 ^c2) d4- | d4 z4 | z2 d2 d2 A2 | d2 e2 (f3 e | %10
w: stel\- * * *|* lam, stel\-||* * lam||ma- gi vi-|den- tes stel\- *|
 d2 c2 B4) | A2 (B3 c d2- | d2 c2 (d3 c | BA c2) B2 G2 | A3 G ABcA | B4) A2 f2 | d2 (e3 d) (d2- | %17
w: |lam, ma\- * *|* gi vi\- *|* * * den- tes|stel\- * * * * *|* lam, vi-|den- tes * stel\-|
 d2 ^c2) d4 | z2 B4 B2 | B2 B2 A2 A2 | G2 d4 d2 | d2 d2 c2 A2 | (B6 AG) | A4 z4 | z4 d4 | %25
w: * * lam,|di- xe-|runt ad in- vi-|cem, ad in-|vi- cem, ad in-|vi\- * *|cem:|hoc|
 d2 d2 c4 | B2 (d3 e f2- | f2 ed e4) | (d3 c BA B2- | B2 AG) A4 | z8 | d4 d2 d2 | c6 c2 | %33
w: si- gnum ma-|gni re\- * *||gis * * * *|* * * est,||hoc si- gnum|ma- gni|
 B2 G2 A4 | z2 A2 B4 | A4 z2 B2 | c4 B4 | d4 d2 f2 | e2 c2 (d3 B) | c2 A2 B4 | A2 F2 (G4- | %41
w: re- gis est!|E- a-|mus, e-|a- mus|et in- qui-|ra- mus, e\- *|um, in- qui-|ra- mus e\-|
 G2 FE F4) | G8 | z8 | z8 | z8 | z2 D2 A4- | A2 A2 A2 A2 | B2 A2 c2 (B2- | BA A4) G2 | A2 c4 B2 | %51
w: |um||||et of\-|* fe- ra- mus|e- i mu\- *|* * * ne-|ra, of- fe-|
 c2 (B4 AG | A6) G2 | A2 G4 (FE) | F2 f3 e d2- | d2 c4 (B2- | B2) A2 B4 | z4 || d8 | c8 | B8 | A8 | %62
w: ra- mus * *|* e-|i mu- ne\- *|ra, mu- ne- ra,|* mu- ne\-|* * ra,||au-|rum,|thus,|et|
 A8 | G2 G2 B3 c | d8 | z2 c2 c2 c2 | B8 | z2 A2 A2 A2 | (G3 A B2) A2- | A2 G4 F2 | G2 B4 (AG) | %71
w: myr-|rham. Al- le- lu-|ia,|al- le- lu-|ia,|al- le- lu-|ia, * * al\-|* le- lu-|ia, al- le\- *|
 F8- | F8 | G8 |] %74
w: lu\-||ia.|
V:2
 G4 G2 D2 | G2 A2 (B3 A | G2) F2 (G2 E2 | D3 E FG A2- | AG/F/ G2) (D3 E | F2) G2 F2 D2 | %6
w: Ma- gi vi-|den- tes stel\- *|* lam, stel\- *||* * * * lam, *|* vi- den- tes|
[M:4/4] E4 D2 (B,C | DEFD E2) (F2- | FEDC B,A, D2- | D2) ^C2 D3 E | (FG A4 G2) | A2 D2 B2 A2 | %12
w: stel- lam, ma\- *|* * * * * gi||* vi- den- tes|stel\- * * *|lam, vi- den\- tes|
 (B2 AG) F2 D2 | D2 A,2 D2 E2 | (F3 E FG A2- | A2 G2) A4 | z2 A2 A2 B2 | A4 ^F4 | z2 G4 G2 | %19
w: stel\- * * lam, ma-|gi vi- den- tes|stel\- * * * *|* * lam,|vi- den- tes|stel- lam,|di- xe-|
 !courtesy!=F2 G2 E2 F2 | D2 B4 (AG | A2) (G4 F2) | G4 z4 | z2 A2 A2 A2 | (G2 F2) A2 (B2- | %25
w: runt ad in- vi-|cem, ad in\- *|* vi\- *|cem:|hoc si- gnum|ma\- * gni re\-|
 BA G4) F2 | G4 F4 | A2 A2 A2 G2 | (G2 F2) (D4- | D2 E2) (FE A2- | A2 A2 G4 | F4 B4 | %32
w: * * * gis|est, hoc|si- gnum ma- gni|re\- * gis|* * est, * *|* hoc si-|gnum ma-|
 (A3 G/F/ E2) A2 | G F2 E/D/ E4) | D2 F2 G4 | F4 z2 G2 | A4 G4 | B4 A2 F2 | (G2 A4) G2- | %39
w: gni * * * re-|gis * * * *|est! E- a-|mus, e-|a- mus|et in- qui-|ra\- * mus,|
 G2 F4 _E2- | E2 D4 C2 | (D3 C B,2 A,2) | B,8 | z8 | z2 G,2 D4- | D2 D2 D2 D2 | E2 D2 (F2 E2- | %47
w: * in- qui\-|* ra- mus|e\- * * *|um||et of\-|* fe- ra- mus|e- i mu\- *|
 ED D4) ^C2 | D2 F2 E2 D2 | E2 F4 (ED) | E2 (A4 G2- | G2 F4) E2 | F2 (F4 E2- | E2 D4) ^C2 | %54
w: * * * ne-|ra, et of- fe-|ra- mus e\- *|i, mu\- *|* * ne-|ra, mu\- *|* * ne-|
 D4 F4- | F4 (G2 E2) | F4- F4 | z4 || B8 | G8 | G8 | E8 | F8 | D6 B2- | B2 B2 A2 B2 | %65
w: ra, mu\-|* ne\- *|ra, *||au-|rum,|thus,|et|myr-|rham. Al\-|* le- lu- ia,|
 (AE) A2 G2 A2 | (GD) G2 F2 G2 | (FC) F2 !courtesy!=E2 F2 | (G3 F DE F2) | D2 _E2 D3 F | %70
w: al\- * le- lu- ia,|al\- * le- lu- ia,|al\- * le- lu- ia,|al\- * * * *|le- lu- ia, al-|
 _E2 (D4 C2) | D8- | D8 | D8 |] %74
w: le- lu\- *|ia.|||
V:3
 z8 | z8 | z8 | z2 d2 d2 A2 | d2 e2 (f3 e) | d2 c2 d2 B2 |[M:4/4][K:treble-8] A4 B2 (GA | %7
w: |||Ma- gi vi-|den- tes stel\- *|lam, vi- den- tes|stel- lam, ma\- *|
 Bc d4) c2 | d2 G2 (d3 c | B2) G2 A2 d2 | d2 A2 (d2 e2) | f2 g2 d2 f2 | e4 d4 | z8 | z2 d2 d2 A2 | %15
w: * * * gi|vi- den- tes *|* stel- lam, ma-|gi vi- den\- *|tes, vi- den- tes|stel- lam,||ma- gi vi-|
 (d2 e2) (f3 e/d/ | f2) e2 f2 g2 | e4 d4 | z2 d4 d2 | d2 d2 c2 d2 | (B3 c de f2- | f2) d2 e2 c2 | %22
w: den- * tes * *|* vi- den- tes|stel- lam,|di- xe-|runt ad in- vi-|cem, * * * *|* ad in- vi-|
 d4 f4 | f2 f2 (e4 | d3 e f2) (g2- | gf d2) e2 c2 | d4 z2 d2 | d2 d2 c4 | B2 (d3 cBA | %29
w: cem: hoc|si- gnum ma\-|* * * gni|* * * re- gis|est. hoc|si- gnum ma-|gni re\- * * *|
 B4) c2 (f2- | fe d4) ^c2 | d2 f4 g2 | e2 f2 (c3 d | ed) d4 ^c2 | d4 z2 d2 | d4 d2 d2 | f4 d4- | %37
w: * gis, re\-|* * * gis|est, hoc si-|gnum ma- gni *|* * re- gis|est! E-|a- mus, e-|a- mus|
 d2 g2 f2 d2 | (e2 f4 d2) | e2 (d4 B2) | c2 (B4 G2) | A2 A2 d4- | d2 d2 d2 d2 | e2 d2 (f2 e2 | %44
w: * et in- qui-|ra\- * *|mus e\- *|um, e\- *|um et of\-|* fe- ra- mus|e- i mu\- *|
 d3 c B2) A2 | B4 A2 (B2- | Bc d4) c2 | d2 f2 e4 | d4 z4 | z4 d4- | d2 c2 (d4 | c2) d2 (B4 | %52
w: * * * ne-|ra, et of\-|* * * fe-|ra- mus e-|i,|of\-|* fe- ra\-|* mus, of\-|
 c4) B4 | A2 B2 G4 | A4 z2 (B2- | B2 c2) (d2 cB | c4) d4 | z4 || f8 | e8 | d8 | c8 | d8 | %63
w: * fe-|ra- mus e-|i mu\-|* * ne- * *|* ra,||au-|rum,|thus,|et|myr-|
 B4 G2 (B2- | Bcde f2) g2 | e2 f2 e2 f2 | d2 _e2 d2 e2 | c2 d2 c2 d2 | B2 G4 A2 | (B2 c2 A4) | %70
w: rham. al- le\-|* * * * * lu-|ia, al- le- lu-|ia, al- le- lu-|ia, al- le- lu-|ia, al- le-|lu\- * *|
 B4 G4 | (A4 B4) | A8 | G8 |] %74
w: ia, al-|le\- *|lu-|ia.|
V:4
 z8 | z8 | z8 | z8 | z8 | z8 |[M:4/4] z4 G,4 | G,2 D,2 G,2 A,2 | (B,3 A, G,2 F,2 | G,2 E,2) D,4 | %10
w: ||||||Ma-|gi vi- den- tes|stel\- * * *|* * lam,|
 z8 | z2 G,2 G,2 D,2 | G,2 A,2 (B,3 A, | G,2) F,2 (G,2 E,2) | D,4 z4 | z4 z2 D2 | D2 C2 D2 G,2 | %17
w: |ma- gi vi-|den- tes stel\- *|* lam, stel\- *|lam,|ma-|gi vi- den- tes|
 A,4 D,4 | z2 G,4 G,2 | B,2 G,2 A,2 D,2 | (G,3 A, B,C D2- | DC) B,2 A,4 | G,4 z2 D2 | D2 D2 C4 | %24
w: stel- lam,|di- xe-|runt, di- xe- runt|ad * * * *|* * in- vi-|cem: hoc|si- gnum ma-|
 B,2 (D3 CB,A, | G,2) B,2 A,4 | G,4 D,4 | z8 | z4 z2 G,2 | G,2 G,2 F,2 D,2 | F,4 E,4 | %31
w: gni, ma\- * * *|* gni re-|gis est.||hoc|si- gnum ma- gni|re- gis|
 D,2 D2 B,2 G,2 | A,6 F,2 | G,2 B,2 A,4 | z2 D,2 G,4 | D,4 z2 G,2 | F,4 G,4- | G,4 D4 | %38
w: est, hoc si- gnum|ma- gni|re- gis est!|E- a-|mus, e-|a- mus|* et|
 C2 A,2 (B,4 | A,2 F,2 G,4 | F,2) D,2 _E,4 | D,4 z2 D,2 | G,6 G,2 | G,2 G,2 A,2 G,2 | %44
w: in- qui- ra\-||* mus e-|um et|of- fe-|ra- mus e- i|
 (B,3 A, G,2) F,2 | G,4 D,2 G,2- | G,A, B,2 (A,3 G, | F,2 D,2) A,4 | z2 D,2 A,2 B,2 | C2 D2 B,4 | %50
w: mu\- * * ne-|ra, et of\-|* * fe- ra\- *|* * mus,|et of- fe-|ra- mus e-|
 A,4 F,2 G,2 | A,2 B,2 G,4 | F,4 D,2 E,2 | F,2 G,2 E,4 | D,4 D3 C | (B,2 A,2) G,4 | F,4 B,4 | z4 || %58
w: i, of- fe-|ra- mus e-|i, of- fe-|ra- mus e-|i mu- ne-|ra, * mu-|ne- ra,||
 B,8 | C8 | G,8 | A,8 | D,8 | G,4 z2 G,2 | B,3 C D2 G,2 | A,3 B, C2 F,2 | G,3 A, B,2 _E,2 | %67
w: au-|rum,|thus,|et|myr-|rham. al-|le- lu- ia, al-|le- lu- ia, al-|le- lu- ia, al-|
 F,3 G, A,2 D,2 | _E,3 F, G,2 F,2 | G,2 C,2 D,4 | G,4 _E,4 | D,8- | D,8 | G,8 |] %74
w: le- lu- ia, al-|le- lu- ia, al-|le- lu- ia,|al- le-|lu\-||ia.|

